X:1
T:Kom Bukken til Gutten
T:Kom Bukken til Gutten (Bjørnson)
T:Christian Haslerud (1834-1921)
%%score [ 1 2 3 4 ]
L:1/8
Q:1/4=60
M:2/4
K:A
V:1 treble nm="Soprano"
V:2 treble nm="Alto"
V:3 treble-8 nm="Tenor"
V:4 bass nm="Bass"
V:1
"^Raskt"!f! E | (Ac) A c | B2 G E | (Ac) A c | B2 z E | (Ac) A c | B2 G E | (Ac) A c | B2 z!p! c | %9
w: Kom|Buk- * ken til|Gut- ten, Kom|Kal- * ven til|Mor, Kom|mjav- * en- de|Kat- ten i|sne- * hvi- de|Sko'r, Kom|
 (de) f e | d2 c z | z4 | z2 z!pp! C | A2 A A | G3 C | A2 A A | G3!mf! C | (FG) A B | c2 c d | %19
w: Æl- * lin- ger|gu- le,||Kom|Kyl- lin- ger|smaa, som|nep- pe kan|gaa, Kom|Du- * er- ne|mi- ne med|
 (cd) c d | c2 c/ z/ C | (FG) A B | c3 d | (cd) c d | c2 z!f! c | f f f f | (fe) d c | (B3 c) | %28
w: Fje- * dre- ne|fi- ne, Se|Græs- * set er|vaadt, men|So- * len gjør|godt, og|tid- lig, tid- lig|er _ det paa|Som- *|
 B2 z B | e3 e | (ec) A c | B4 | A2 z z |] %33
w: mer'n, men|raab paa|Hø- * sten, saa|kom-|mer'n.|
V:2
!f! E | E2 E E | E2 E E | E2 E E | E2 z E | E2 E E | E2 E E | E2 E E | E2 z!p! A | (Bc) d c | %10
w: Kom|Buk- ken til|Gut- ten, Kom|Kal- ven til|Mor, Kom|mjav- en- de|Kat- ten i|sne- hvi- de|Sko'r, Kom|Æl- * lin- ger|
 B2 A z | z4 | z2 z!pp! C | F2 F F | ^E3 C | C2 F F | ^E3!mf! C | C2 F F | F2 F F | G2 G G | %20
w: gu- le,||Kom|Kyl- lin- ger|smaa, som|nep- pe kan|gaa, Kom|Du- er- ne|mi- ne med|Fje- dre- ne|
 A2 F/ z/ C | C2 F F | F3 F | G2 G G | A2 z!f! A | F F A A | G2 G A | (G3 A) | G2 z G | A3 A | %30
w: fi- ne, Se|Græs- set er|vaadt, men|So- len gjør|godt, og|tid- lig, tid- lig|er det paa|Som- *|mer'n, men|raab paa|
 A2 A A | G4 | E2 z z |] %33
w: Hø- sten, saa|kom-|mer'n.|
V:3
!f! c | (cA) c A | G2 B G | A2 A A | G2 z E | (cA) c A | G2 B G | A2 A A | G2 z2 | z4 | z2 z!p! c | %11
w: Kom|Buk- * ken til|Gut- ten, Kom|Kal- ven til|Mor, Kom|mjav- * en- de|Kat- ten i|sne- hvi- de|Sko'r,||Kom|
 (Bc) d B | c2 c/ z/!pp! c | c2 c c | (cd c) B | (AB) c c | c3!mf! c | A2 c c | c2 A A | B2 B B | %20
w: frem _ i- fra|Skju- le, Kom|Kyl- lin- ger|smaa, _ _ som|nep- * pe kan|gaa, Kom|Du- er- ne|mi- ne med|Fje- dre- ne|
 A2 A/ z/ c | A2 c c | c3 A | B2 B B | A2 z!f! A | A A d c | B2 B c | e4 | e2 z e | e3 c | %30
w: fi- ne, Se|Græs- set er|vaadt, men|So- len gjør|godt, og|tid- lig, tid- lig|er det paa|Som-|mer'n men|raab paa|
 (ce) c e | d4 | c2 z z |] %33
w: Hø- * sten, saa|kom-|mer'n.|
V:4
!f! A, | A,,2 A,, A,, | E,2 E, D, | (C,A,,) C, A,, | E,2 z E, | A,,2 A,, A,, | E,2 E, E, | %7
w: Kom|Buk- ken til|Gut- ten, Kom|Kal- * ven til|Mor, Kom|mjav- en- de|Kat- ten i|
 (C,A,,) C, A,, | E,2 z2 | z4 | z2 z!p! A, | (G,A,) B, G, | A,2 A,/ z/!pp! C | F,2 A, F, | C,3 C, | %15
w: sne- * hvi- de|Sko'r,||Kom|frem _ i- fra|Skju- le, Kom|Kyl- lin- ger|smaa, som|
 (F,G,) A, F, | C,3!mf! C | F,2 F, G, | A,2 F, F, | ^E,2 E, E, | F,2 F,/ z/ C | F,2 F, G, | %22
w: nep- * pe kan|gaa, Kom|Du- er- ne|mi- ne med|Fje- dre- ne|fi- ne, Se|Græs- set er|
 A,3 F, | ^E,2 E, E, | F,2 z!f! F, | D, D, D, D, | E,2 E, A, | E,4 | E,2 z D, | C,3 A,, | %30
w: vaadt, men|So- len gjør|godt, og|tid- lig, tid- lig|er det paa|Som-|mer'n men|raab paa|
 E,2 E, E, | E,4 | A,,2 z z |] %33
w: Hø- sten, saa|kom-|mer'n.|

